X:1
T:Title
%%score { 1 | 2 }
L:1/8
Q:1/4=112
M:4/4
K:G
V:1 treble nm="Grand Piano"
V:2 bass 
V:1
 D2 D2 E2 D2 | G2 [FA]2 B4 | d3 e d2 B2 | [GB]4 [FA]4 | D2 D2 E2 D2 | G2 [FA]2 B4 | d3 e d2 B2 | %7
w: Ira~D.~Sankey * * *|||||||
 [CFA]4 [B,G]4 | B4 A2 B2 | G2 E2 D4 | B4 A2 G2 | B2 [Fd]2 d4 | d3 e d2 B2 | A2 G2 E2 G2 | %14
w: |||||||
 D2 G2 B2 [G,B,DG]2 | [CFA]4 [B,G]4 |] %16
w: ||
V:2
 [G,B,]2 [G,B,]2 [G,C]2 [G,B,]2 | [G,B,D]2 [D,D]2[K:treble] [G,DG]4 | %2
 [G,B,G]3 [G,CG] [G,B,G]2 [G,DG]2 | [D,D]4 [D,D]4 | [G,B,]2 [G,B,]2 [G,C]2 [G,B,]2 | %5
 [G,B,D]2 [D,D]2[K:treble] [G,DG]4 | [G,B,G]3 [G,CG] [G,B,G]2 [G,DG]2 | D,4 G,,4 | %8
 [G,DG]4 [G,CG]2 [G,DG]2 | [G,B,D]2 [G,C]2 [G,B,]4 | [G,DG]4 [G,CG]2[K:bass] [G,B,]2 | %11
 [G,D]2 [D,A,]2 [G,,B,G]4 | [G,B,G]3 [G,CG] [G,B,G]2[K:bass] [G,D]2 | %13
 [D,F,C]2 [E,G,B,]2 [C,G,C]2 [E,G,C]2 | [G,B,]2[K:treble] [G,B,D]2 [G,DG]2[K:bass] B,,2 | %15
 D,4 G,,4 |] %16

